SVG_Azure_All/Data Box.svg

<?xml version="1.0" encoding="UTF-8" standalone="no"?>
<!-- Generated by Microsoft Visio, SVG Export Data Box.svg Page-1 -->

<svg
   xmlns:dc="http://purl.org/dc/elements/1.1/"
   xmlns:cc="http://creativecommons.org/ns#"
   xmlns:rdf="http://www.w3.org/1999/02/22-rdf-syntax-ns#"
   xmlns:svg="http://www.w3.org/2000/svg"
   xmlns="http://www.w3.org/2000/svg"
   xmlns:sodipodi="http://sodipodi.sourceforge.net/DTD/sodipodi-0.dtd"
   xmlns:inkscape="http://www.inkscape.org/namespaces/inkscape"
   width="0.78780085in"
   height="0.74821782in"
   viewBox="0 0 56.721923 53.871701"
   xml:space="preserve"
   class="st5"
   version="1.1"
   id="svg40"
   sodipodi:docname="Data Box.svg"
   style="font-size:12px;overflow:visible;color-interpolation-filters:sRGB;fill:none;fill-rule:evenodd;stroke-linecap:square;stroke-miterlimit:3"
   inkscape:version="0.92.5 (2060ec1f9f, 2020-04-08)"><metadata
   id="metadata44"><rdf:RDF><cc:Work
       rdf:about=""><dc:format>image/svg+xml</dc:format><dc:type
         rdf:resource="http://purl.org/dc/dcmitype/StillImage" /></cc:Work></rdf:RDF></metadata><sodipodi:namedview
   pagecolor="#ffffff"
   bordercolor="#666666"
   borderopacity="1"
   objecttolerance="10"
   gridtolerance="10"
   guidetolerance="10"
   inkscape:pageopacity="0"
   inkscape:pageshadow="2"
   inkscape:window-width="640"
   inkscape:window-height="480"
   id="namedview42"
   showgrid="false"
   inkscape:zoom="1.4752095"
   inkscape:cx="37.818391"
   inkscape:cy="34.636951"
   inkscape:window-x="0"
   inkscape:window-y="0"
   inkscape:window-maximized="0"
   inkscape:current-layer="svg40" />
	<style
   type="text/css"
   id="style2">
	<![CDATA[
		.st1 {fill:url(#grad0-6);stroke:none;stroke-linecap:butt;stroke-width:32.1017}
		.st2 {fill:#50e6ff;stroke:none;stroke-linecap:butt;stroke-width:32.1017}
		.st3 {fill:#0078d4;stroke:none;stroke-linecap:butt;stroke-width:32.1016}
		.st4 {fill:#ffffff;stroke:none;stroke-linecap:butt;stroke-width:32.1016}
		.st5 {fill:none;fill-rule:evenodd;font-size:12px;overflow:visible;stroke-linecap:square;stroke-miterlimit:3}
	]]>
	</style>

	<defs
   id="Patterns_And_Gradients">
		<linearGradient
   id="grad0-6"
   x1="0"
   y1="95.477304"
   x2="47.555216"
   y2="95.477304"
   gradientTransform="scale(1.192088,0.83886427)"
   gradientUnits="userSpaceOnUse">
			<stop
   offset="0"
   stop-color="#0078d4"
   stop-opacity="1"
   id="stop4" />
			<stop
   offset="0.82"
   stop-color="#5ea0ef"
   stop-opacity="1"
   id="stop6" />
		</linearGradient>
	</defs>
	<g
   id="g38"
   transform="translate(-32.099077,-32.097658)">
		<title
   id="title10">Page-1</title>
		<g
   id="group5926-1"
   transform="translate(32.131,-34.0157)">
			<title
   id="title12">Data Box</title>
			<g
   id="group5927-2"
   transform="translate(0,-13.9794)">
				<title
   id="title14">g15</title>
				<g
   id="shape5928-3">
					<title
   id="title16">path11</title>
					<path
   d="M 56.69,107.49 A 12.7559,12.6597 -180 0 0 45.64,95.33 16.063,15.9418 -180 0 0 29.1,80.1 16.4724,16.3482 -180 0 0 13.35,90.73 15.2441,15.1291 -180 0 0 0,105.27 a 15.4016,15.2854 -180 0 0 15.97,14.69 9.98425,9.90892 -180 0 0 1.38,0 h 25.86 a 2.45669,2.43816 -180 0 0 0.7,0 12.8819,12.7847 -180 0 0 12.78,-12.47 z"
   class="st1"
   id="path18"
   inkscape:connector-curvature="0"
   style="fill:url(#grad0-6);stroke:none;stroke-width:32.10169983;stroke-linecap:butt" />
				</g>
				<g
   id="shape5929-7"
   transform="translate(4.24426,-0.0243671)">
					<title
   id="title21">path13</title>
					<path
   d="m 25.58,104.92 a 14.9291,14.8165 -180 1 0 -14.9,15.06 h 14.9 z"
   class="st2"
   id="path23"
   inkscape:connector-curvature="0"
   style="fill:#50e6ff;stroke:none;stroke-width:32.10169983;stroke-linecap:butt" />
				</g>
			</g>
			<g
   id="shape5930-9"
   transform="translate(22.4495)">
				<title
   id="title27">path17</title>
				<path
   d="m 14.72,112.86 -7.09,7 a 0.314961,0.312584 0 0 1 -0.503938,0 L 0.07,112.86 a 0.377953,0.375101 0 0 1 0.251972,-0.62517 L 4.48,112.23 a 0.346457,0.343843 -180 0 0 0.346456,-0.43761 L 4.83,102.73 a 0.346457,0.343843 0 0 1 0.377951,-0.31259 L 9.58,102.42 a 0.346457,0.343843 0 0 1 0.346456,0.34384 L 9.93,111.79 a 0.346457,0.343843 -180 0 0 0.377955,0.34384 L 14.46,112.14 a 0.3834935,0.38059948 0 0 1 0.251971,0.71895 z"
   class="st3"
   id="path29"
   inkscape:connector-curvature="0"
   style="fill:#0078d4;stroke:none;stroke-width:32.10160065;stroke-linecap:butt" />
			</g>
			<g
   id="shape5931-11"
   transform="translate(22.4701,-14.035)">
				<title
   id="title32">path19</title>
				<path
   d="m 0.05,109.64 7.31,-7.26 7.34,7.26 a 0.346457,0.343843 0 0 1 -0.251971,0.59391 L 10.29,110.23 a 0.377953,0.375101 -180 0 0 -0.377955,0.3751 L 9.91,119.98 h -5.1 v -9.37 A 0.377953,0.375101 -180 0 0 4.463544,110.20364 L 0.3,110.2 a 0.346457,0.343843 0 0 1 -0.251972,-0.56265 z"
   class="st4"
   id="path34"
   inkscape:connector-curvature="0"
   style="fill:#ffffff;stroke:none;stroke-width:32.10160065;stroke-linecap:butt" />
			</g>
		</g>
	</g>
</svg>

<?xml version="1.0" encoding="UTF-8" standalone="no"?>
<!DOCTYPE svg PUBLIC "-//W3C//DTD SVG 1.1//EN" "http://www.w3.org/Graphics/SVG/1.1/DTD/svg11.dtd">
<!-- Generated by Microsoft Visio, SVG Export Data Box.svg Page-1 -->
<svg xmlns="http://www.w3.org/2000/svg" xmlns:xlink="http://www.w3.org/1999/xlink" xmlns:ev="http://www.w3.org/2001/xml-events"
		width="1.67952in" height="1.66643in" viewBox="0 0 120.926 119.983" xml:space="preserve" color-interpolation-filters="sRGB"
		class="st5">
	<style type="text/css">
	<![CDATA[
		.st1 {fill:url(#grad0-6);stroke:none;stroke-linecap:butt;stroke-width:32.1017}
		.st2 {fill:#50e6ff;stroke:none;stroke-linecap:butt;stroke-width:32.1017}
		.st3 {fill:#0078d4;stroke:none;stroke-linecap:butt;stroke-width:32.1016}
		.st4 {fill:#ffffff;stroke:none;stroke-linecap:butt;stroke-width:32.1016}
		.st5 {fill:none;fill-rule:evenodd;font-size:12px;overflow:visible;stroke-linecap:square;stroke-miterlimit:3}
	]]>
	</style>

	<defs id="Patterns_And_Gradients">
		<linearGradient id="grad0-6" x1="0" y1="0" x2="1" y2="0" gradientTransform="rotate(-90 0.5 0.5)">
			<stop offset="0" stop-color="#0078d4" stop-opacity="1"/>
			<stop offset="0.82" stop-color="#5ea0ef" stop-opacity="1"/>
		</linearGradient>
	</defs>
	<g>
		<title>Page-1</title>
		<g id="group5807-1" transform="translate(32.131,-34.0157)">
			<title>Data Box</title>
			<g id="group5808-2" transform="translate(0,-13.9794)">
				<title>g15</title>
				<g id="shape5809-3">
					<title>path11</title>
					<path d="M56.69 107.49 A12.7559 12.6597 -180 0 0 45.64 95.33 A16.063 15.9418 -180 0 0 29.1 80.1 A16.4724 16.3482
								 -180 0 0 13.35 90.73 A15.2441 15.1291 -180 0 0 0 105.27 A15.4016 15.2854 -180 0 0 15.97 119.96 A9.98425
								 9.90892 -180 0 0 17.35 119.96 L43.21 119.96 A2.45669 2.43816 -180 0 0 43.91 119.96 A12.8819 12.7847
								 -180 0 0 56.69 107.49 Z" class="st1"/>
				</g>
				<g id="shape5810-7" transform="translate(4.24426,-0.0243671)">
					<title>path13</title>
					<path d="M25.58 104.92 A14.9291 14.8165 -180 1 0 10.68 119.98 L25.58 119.98 L25.58 104.92 Z" class="st2"/>
				</g>
			</g>
			<g id="shape5811-9" transform="translate(22.4495,-2.70006E-13)">
				<title>path17</title>
				<path d="M14.72 112.86 L7.63 119.86 a0.314961 0.312584 0 0 1 -0.503938 0 L0.07 112.86 a0.377953 0.375101 0 0 1 0.251972
							 -0.625173 L4.48 112.23 a0.346457 0.343843 -180 0 0 0.346456 -0.437614 L4.83 102.73 a0.346457 0.343843
							 0 0 1 0.377951 -0.312587 L9.58 102.42 a0.346457 0.343843 0 0 1 0.346456 0.343844 L9.93 111.79 a0.346457
							 0.343843 -180 0 0 0.377955 0.343842 L14.46 112.14 a0.383491 0.380597 0 0 1 0.251971 0.718945 Z"
						class="st3"/>
			</g>
			<g id="shape5812-11" transform="translate(22.4701,-14.035)">
				<title>path19</title>
				<path d="M0.05 109.64 L7.36 102.38 L14.7 109.64 a0.346457 0.343843 0 0 1 -0.251971 0.593913 L10.29 110.23 a0.377953
							 0.375101 -180 0 0 -0.377955 0.375098 L9.91 119.98 L4.81 119.98 L4.81 110.61 a0.377953 0.375101 -180
							 0 0 -0.346456 -0.406359 L0.3 110.2 a0.346457 0.343843 0 0 1 -0.251972 -0.562652 Z" class="st4"/>
			</g>
		</g>
	</g>
</svg>
